X: 25191
T: Malarky
R: reel
M: 4/4
K: Eminor
EFGA B2B2|^A2^A2 B2B2|EFGA B2Bc|BAGF E2B2|
EFGA B2Bc/d/|_ecBc BAGF|EFGA B2Bc|BAGF E2EA||
K: Bmin
F2B2 Bcdc|Bcde fedc|B2BF Bcde|fedc B2BF|
B2F2 Bcdc|Bcde fedf|bfda ecAc|dBBA B2BF||
K: Emin
|:G~E3 B,ECE|EFGA BAGF|G~E3 CEB,E|1 EFGF E2EF:|2 EFGF E2E2||

